public/assets/svg/version-1.svg

<svg width="36" height="36" viewBox="0 0 36 36" fill="none" xmlns="http://www.w3.org/2000/svg">
<path d="M0.00199974 4.958L14.7552 2.926V17.18H0L0.00199974 4.958ZM0.00199974 31.042L14.7552 33.076V18.996H0L0.00199974 31.042ZM16.3771 33.292L36 36V18.996H16.3771V33.292ZM16.3771 2.708V17.18H36V0L16.3771 2.708Z" fill="white"/>
</svg>

<svg width="36" height="36" fill="none" xmlns="http://www.w3.org/2000/svg"><path d="m.002 4.958 14.753-2.032V17.18H0L.002 4.958Zm0 26.084 14.753 2.034v-14.08H0l.002 12.046Zm16.375 2.25L36 36V18.996H16.377v14.296Zm0-30.584V17.18H36V0L16.377 2.708Z" fill="#fff"/></svg>
